X: 10053
M: C
L: 1/8
K: Bb
e |\
d>e(fd) g>a(bg) | f>g(f<d) f<d{d}c>B | d>e(fd) g>a(bg) | f>d (e/d/c/B/) G<BBe |
d>e(fd) g>a(bg) | f>g(f<d) f<dc>d | e>f(e<c) d<BG>g | f>d(c>f) d<BB |]


